X: 1
P: Maggie's Reel
C: by Tom Anderson, from SRS 8.4
C: arr. T. Traub 8-31-2005
M: 4/4
L: 1/8
K: D
|: FE|"D"DFAB AFED|d3 A BABd|"D"ABdA "Bm"BAFD|"Em"B,EEF "A7"EGFE|"D"DFAB AFED|defd BAFA|
"G"d d2 A BAFD|"A"B,DDE "D"D2 :||: Ac|"D"defd "A"ca^ga|"D"fdAF "G"BGFG |"D"Adcd fded|"Em"Beef "A"e2 Ac|
"D"defd "A"ecAF|"G"GABG "D"AdFD|"G"GABG "A"ABcA|"D"d d2 c d2 Ac||"D"defd "A"ca^ga|"D"fdAF "G"BGFG|
"D"Adcd fdcd|"Em"Beef "A"e2 FE|"D"DFAB AFED|"D"defd BAFA|"G"d d2 A BAFD|"A"B,DDE "D"D2 |]
